(G-CODE GENERATED BY FLATCAM v8.991 - www.flatcam.org - Version Date: 2019/12/27)

(Name: drill06)
(Type: G-code from Excellon)
(Units: MM)

(Created on Вторник, 28 апреля 2020 at 15:38)

(Feedrate: 30.0 mm/min)
(Feedrate rapids 1500.0 mm/min)

(Z_Cut: -1.7 mm)
(Z_Move: 2.0 mm)
(Z Toolchange: 15.0 mm)
(X,Y Toolchange: 0.0000, 0.0000 mm)
(Z Start: None mm)
(Z End: 0.5 mm)
(Steps per circle: 64)
(Preprocessor Excellon: default)

(X range:    2.2099 ...   78.0899  mm)
(Y range:   13.7108 ...   95.0708  mm)

(Spindle Speed: 1000.0 RPM)
G21
G90
G94




G01 F30.00
G00 Z2.0000

M03 S1000.0
G00 X10.6085 Y65.4811
G01 Z-1.7000
G01 Z0
G00 Z2.0000
G00 X12.1502 Y66.5326
G01 Z-1.7000
G01 Z0
G00 Z2.0000
G00 X30.3671 Y60.9446
G01 Z-1.7000
G01 Z0
G00 Z2.0000
G00 X31.9622 Y61.9962
G01 Z-1.7000
G01 Z0
G00 Z2.0000
G00 X39.0539 Y70.8557
G01 Z-1.7000
G01 Z0
G00 Z2.0000
G00 X43.2500 Y67.2362
G01 Z-1.7000
G01 Z0
G00 Z2.0000
G00 X49.7448 Y54.6632
G01 Z-1.7000
G01 Z0
G00 Z2.0000
G00 X53.4100 Y51.6736
G01 Z-1.7000
G01 Z0
G00 Z2.0000
G00 X62.2416 Y55.7300
G01 Z-1.7000
G01 Z0
G00 Z2.0000
G00 X60.9716 Y53.1163
G01 Z-1.7000
G01 Z0
G00 Z2.0000
G00 X52.4524 Y45.5167
G01 Z-1.7000
G01 Z0
G00 Z2.0000
G00 X48.5840 Y41.6330
G01 Z-1.7000
G01 Z0
G00 Z2.0000
G00 X48.7516 Y20.0836
G01 Z-1.7000
G01 Z0
G00 Z2.0000
G00 X47.3140 Y14.0105
G01 Z-1.7000
G01 Z0
G00 Z2.0000
G00 X37.7992 Y20.6551
G01 Z-1.7000
G01 Z0
G00 Z2.0000
G00 X35.0661 Y21.2444
G01 Z-1.7000
G01 Z0
G00 Z2.0000
G00 X31.7641 Y18.5368
G01 Z-1.7000
G01 Z0
G00 Z2.0000
G00 X36.1151 Y33.3577
G01 Z-1.7000
G01 Z0
G00 Z2.0000
G00 X39.6940 Y35.8062
G01 Z-1.7000
G01 Z0
G00 Z2.0000
G00 X33.1484 Y42.8420
G01 Z-1.7000
G01 Z0
G00 Z2.0000
G00 X20.4510 Y48.7348
G01 Z-1.7000
G01 Z0
G00 Z2.0000
G00 X23.5447 Y51.6914
G01 Z-1.7000
G01 Z0
G00 Z2.0000
M05
G00 Z0.50
G00 X0.0 Y0.0

